X: 4101
T: Bloom Of Youth, The
R: reel
M: 4/4
K: Gmajor
G2{B}AG EGDE|G2BG AE~E2|G2{B}AG EGAB|cedc BGAF|
G2{B}AG EGDE|G2BG AEEF|G2{B}AG EGAB|cedc BG~G2||
gedg edBA|(3BcB {c}BG AE~E2|~g3d edBA|(3Bcd gd BG~G2|
eg~g2 eB~B2|dBAF GE~E2|DzDE GABc|dedc BGAF||

